X: 21
T: the Wild One
C:Mary Pantaleone
M:6/8
L:1/8
R:jig
Z:abc by Debby Knight
K:Dmin
A, \
| "Dm"DEF DGD | "F"ADc AGF | "Bb"DEF DGD | "Am"ADF "(C)"EDC \
| "Dm"DEF DGD | "F"ADc AGF | "Bb"dcA "F/a"GAF | "C"EDC "Dm"D2 :|
|: A \
| "Dm"d2c A2c | "F"dcA cdc | "Bb"d2c A2G | "C"FGE "Dm"FED \
| "Dm"d2c A2c | "F"dcA cdc | "Bb"dcA "F/a"cdF | "C"EDC "Dm"D2 :|
